X: 1
T: Vals i Am
S: Bengt Jonsson
M: 3/4
L: 1/8
K: Am
"G"B2 \
| "Am"A2 c2 e2 | a4 eg | "Dm"f2 e2 d2 | "E7"c3 dcB \
| "Am"A2 c2 e2 | "C"g4 fe | "E7"d2 B2 c2 | "Am"HA4 :|
|: "G7"B2 \
| "C"cG ce ge | ec cc c2 | "G7"BG Bd fd | dB BB B2 \
| "Am"AG Ac ec | c2 AcBA | "G7"GA Bc dB | "C"c4 :|
